svg/color/zusd.svg

<svg width="64" height="65" viewBox="0 0 64 65" fill="none" xmlns="http://www.w3.org/2000/svg">
<rect y="0.303711" width="64" height="64" rx="32" fill="#D62825"/>
<rect x="0.5" y="0.803711" width="63" height="63" rx="31.5" stroke="#070B14" stroke-opacity="0.15"/>
<path d="M54.154 38.9894C54.154 35.9756 52.9571 34.3481 52.9571 34.3481C47.7474 40.7762 37.4831 41.788 27.6277 41.788L24.446 43.1141L54.9333 20.5704H19.8304C18.4602 20.5704 17.146 21.1148 16.1771 22.0837C15.2082 23.0526 14.6638 24.3668 14.6638 25.7371C14.6608 26.4808 14.8226 27.216 15.1374 27.8898C21.5526 22.8394 31.1453 22.9557 36.3852 22.9557L39.5669 21.6296L9.06665 44.1561H48.9874C50.3577 44.1561 51.6718 43.6117 52.6408 42.6428C53.6097 41.6739 54.154 40.3597 54.154 38.9894Z" fill="white"/>
</svg>

<svg xmlns="http://www.w3.org/2000/svg" width="64" height="65" fill="none" viewBox="0 0 64 65"><rect width="64" height="64" y=".304" fill="#D62825" rx="32"/><rect width="63" height="63" x=".5" y=".804" stroke="#070B14" stroke-opacity=".15" rx="31.5"/><path fill="#fff" d="M54.154 38.99c0-3.014-1.197-4.642-1.197-4.642-5.21 6.428-15.474 7.44-25.33 7.44l-3.181 1.326L54.933 20.57H19.83a5.167 5.167 0 0 0-5.166 5.167 5 5 0 0 0 .473 2.153c6.416-5.05 16.008-4.934 21.248-4.934l3.182-1.326-30.5 22.526h39.92a5.167 5.167 0 0 0 5.167-5.167"/></svg>
